X:567
T: RINGEL RINGEL REIHE
N: E1870
O: Europa, Mitteleuropa, Deutschland, Thueringen; Franken
R: Kinder - Lied, Tanz, Ringelreihen
M: 2/4
L: 1/8
K: F
 | ccdd | c2A2 |
ccdd | c2A2 |
ccdd | ccA2 |
dcBA | GGF2

@@@ Tune index: 5251
